usr/share/icons/biglinux-icons-material-dark/16/actions/mail-mark-junk.svg

<svg version="1.1" viewBox="0 0 16 16" xmlns="http://www.w3.org/2000/svg">
 <defs>
  <style id="current-color-scheme" type="text/css">.ColorScheme-Text {
        color:#dedede;
      }
      .ColorScheme-NegativeText {
        color:#da4453;
      }</style>
 </defs>
 <path d="m12.449 8a3.5 3.5 0 0 0-2.4238 1.0254 3.5 3.5 0 0 0 0 4.9492 3.5 3.5 0 0 0 4.9492 0 3.5 3.5 0 0 0 0-4.9492 3.5 3.5 0 0 0-2.5254-1.0254zm0.08789 1a2.5 2.5 0 0 1 1.3398 0.41602l-3.4629 3.4629a2.5 2.5 0 0 1 0.31836-3.1465 2.5 2.5 0 0 1 1.8047-0.73242zm2.0488 1.1211a2.5 2.5 0 0 1-0.31836 3.1465 2.5 2.5 0 0 1-3.1445 0.31641l3.4629-3.4629z" style="fill:currentColor" class="ColorScheme-NegativeText"/>
 <path d="m2 2c-1.108 0-2 0.892-2 2v8c0 1.108 0.892 2 2 2h6.7617a4.5 4.5 0 0 1-0.49805-1h-6.2637c-0.48888 0-0.87448-0.35406-0.96289-0.81641l4.4609-3.5508 1.1699 0.93164c0.43359 0.34528 1.033 0.48042 1.6016 0.41602a4.5 4.5 0 0 1 1.0879-1.7012l-0.81836 0.65234c-0.30559 0.24335-0.77256 0.24335-1.0781 0l-6.4238-5.1152c0.088406-0.46235 0.47401-0.81641 0.96289-0.81641h12c0.48888 0 0.87448 0.35406 0.96289 0.81641l-4.8906 3.8945a4.5 4.5 0 0 1 2.4277-0.71094 4.5 4.5 0 0 1 0.04687 0.00195l2.4531-1.9531v2.7109a4.5 4.5 0 0 1 1 0.91406v-4.6738c0-1.108-0.892-2-2-2zm-1 3.0488 3.7051 2.9512-3.7051 2.9512z" style="fill:currentColor" class="ColorScheme-Text"/>
</svg>

<svg xmlns="http://www.w3.org/2000/svg" viewBox="0 0 16 16">
<defs>
<style id="current-color-scheme" type="text/css">
.ColorScheme-Text{color:#dedede}.ColorScheme-NegativeText{color:#da4453}
</style>
</defs>
<path d="M12.449 8a3.5 3.5 0 0 0-2.424 1.025 3.5 3.5 0 0 0 0 4.95 3.5 3.5 0 0 0 4.95 0 3.5 3.5 0 0 0 0-4.95A3.5 3.5 0 0 0 12.448 8m.088 1a2.5 2.5 0 0 1 1.34.416l-3.463 3.463a2.5 2.5 0 0 1 .318-3.147A2.5 2.5 0 0 1 12.537 9m2.049 1.121a2.5 2.5 0 0 1-.319 3.147 2.5 2.5 0 0 1-3.144.316z" class="ColorScheme-NegativeText" style="fill:currentColor"/>
<path d="M2 2C.892 2 0 2.892 0 4v8c0 1.108.892 2 2 2h6.762a4.5 4.5 0 0 1-.498-1H2a.98.98 0 0 1-.963-.816l4.461-3.551 1.17.931c.433.346 1.033.48 1.601.416a4.5 4.5 0 0 1 1.088-1.7l-.818.652a.89.89 0 0 1-1.078 0L1.037 3.816A.98.98 0 0 1 2 3h12c.489 0 .874.354.963.816l-4.89 3.895A4.5 4.5 0 0 1 12.5 7l.047.002L15 5.049v2.71a4.5 4.5 0 0 1 1 .915V4c0-1.108-.892-2-2-2zM1 5.049 4.705 8 1 10.951z" class="ColorScheme-Text" style="fill:currentColor"/>
</svg>
